logo/lucene.net.svg

<svg viewBox="0 0 256 146" xmlns="http://www.w3.org/2000/svg" xmlns:xlink="http://www.w3.org/1999/xlink"><defs><linearGradient id="a" x1="16.141%" x2="49.957%" y1="95.174%" y2="36.626%"><stop offset="0%" stop-color="#02364F"/><stop offset="100%" stop-color="#0664A8"/></linearGradient><linearGradient id="b" x1="-.02%" x2="99.976%" y1="49.956%" y2="49.956%" xlink:href="#a"/><linearGradient id="c" x1="90.749%" x2="65.509%" y1="-14.259%" y2="34.527%" xlink:href="#a"/></defs><g transform="translate(-1 0)"><path fill="#0664A8" d="M247.4 66.6c-12.7 40.7-59.9 38.5-88.8 30.5 -18.9-5.2-36.9-15.1-54.3-23.8 .4-.5.7-1 1.1-1.5 2.2-2.7 7.4-8.4 14.6-15.1 10 4.3 20 8.9 29.8 13.2C182 84 236.2 86 237.3 33.7 238.1-3.1 182-8 152.4 10.8c-11.3 7.2-20.5 16.1-29 25.5 -40-15-93.4-12.9-121.6 23.1 34.7-28.9 71.6-21.4 107.6-7 -4.8 5.6-9.6 11-14.8 16.3 -27-12.7-52.7-20.2-78.9-.5 -33.4 25.3-4.2 64.7 31 60.1 21.5-2.8 32.6-17.1 42.6-32.7 26.5 15.1 55.2 37.2 78.3 45.5 57.4 20.8 112.1-35.1 79.8-74.5v0Zm-39-37.5c8.2 12.3-6.7 27.2-27.4 25.7 -19.5-1.4-30.4-8.3-43.3-13.6C162 22.2 193 6 208.4 29.1v0ZM40.6 106c-15.7-.3-11.7-23.6 2.6-25.3 9.1-1.1 19.7 1.9 31 7.1 -10 9.8-22.5 21.6-33.6 18.2v0Z"/><g transform="translate(5 20)"><path fill="url(#a)" d="M35.1 88.6c1.9-.6 3.8-1.3 5.6-2 -1.7.1-3.4-.1-5.1-.6 -15.7-.3-11.7-23.6 2.6-25.3 9.1-1.1 19.6 1.9 30.9 7 -22-13.9-42.7-24.1-58.3-19.5 -4 3-7.1 6.2-9.4 9.6 -4.7 14.7 8.1 39.3 33.7 30.8v0Z"/><path fill="url(#b)" d="M152.1 116.7c3.6 1.8 7.1 3.3 10.5 4.5C220 141.9 274.7 86 242.4 46.6c-12.2 48.8-53 81.1-90.3 70.1Z"/><path fill="url(#c)" d="M193.2 0c3.8 1.8 7.3 4.8 10.2 9.1 8.2 12.3-6.7 27.2-27.4 25.7 -19.5-1.4-30.4-8.3-43.3-13.6 -6.6 5.2-12.7 10.6-17.9 15.5 10.1 4.3 20.1 9 29.9 13.2 26.7 11.6 68.3 15 82.6-13.8 3.2-18.2-13.5-32.3-34.1-36.1v0Z"/></g></g></svg>

<?xml version="1.0" encoding="UTF-8" standalone="no"?>
<svg width="256px" height="146px" viewBox="0 0 256 146" version="1.1" xmlns="http://www.w3.org/2000/svg" xmlns:xlink="http://www.w3.org/1999/xlink" preserveAspectRatio="xMidYMid">
    <defs>
        <linearGradient x1="16.1419615%" y1="95.1748288%" x2="49.9574815%" y2="36.6269229%" id="linearGradient-1">
            <stop stop-color="#02364F" offset="0%"></stop>
            <stop stop-color="#0664A8" offset="100%"></stop>
        </linearGradient>
        <linearGradient x1="-0.0198153468%" y1="49.9566634%" x2="99.9760304%" y2="49.9566634%" id="linearGradient-2">
            <stop stop-color="#02364F" offset="0%"></stop>
            <stop stop-color="#0664A8" offset="100%"></stop>
        </linearGradient>
        <linearGradient x1="90.749717%" y1="-14.2587157%" x2="65.5094659%" y2="34.5274179%" id="linearGradient-3">
            <stop stop-color="#02364F" offset="0%"></stop>
            <stop stop-color="#0664A8" offset="100%"></stop>
        </linearGradient>
    </defs>
	<g transform="translate(-1.000000, 0.000000)">
		<path d="M247.4,66.6 C234.7,107.3 187.5,105.1 158.6,97.1 C139.7,91.9 121.7,82 104.3,73.3 C104.7,72.8 105,72.3 105.4,71.8 C107.6,69.1 112.8,63.4 120,56.7 C130,61 140,65.6 149.8,69.9 C182,84 236.2,86 237.3,33.7 C238.1,-3.1 182,-8 152.4,10.8 C141.1,18 131.9,26.9 123.4,36.3 C83.4,21.3 30,23.4 1.8,59.4 C36.5,30.5 73.4,38 109.4,52.4 C104.6,58 99.8,63.4 94.6,68.7 C67.6,56 41.9,48.5 15.7,68.2 C-17.7,93.5 11.5,132.9 46.7,128.3 C68.2,125.5 79.3,111.2 89.3,95.6 C115.8,110.7 144.5,132.8 167.6,141.1 C225,161.9 279.7,106 247.4,66.6 L247.4,66.6 Z M208.4,29.1 C216.6,41.4 201.7,56.3 181,54.8 C161.5,53.4 150.6,46.5 137.7,41.2 C162,22.2 193,6 208.4,29.1 L208.4,29.1 Z M40.6,106 C24.9,105.7 28.9,82.4 43.2,80.7 C52.3,79.6 62.9,82.6 74.2,87.8 C64.2,97.6 51.7,109.4 40.6,106 L40.6,106 Z" fill="#0664A8"></path>
		<g transform="translate(5.000000, 20.000000)">
			<path d="M35.1,88.6 C37,88 38.9,87.3 40.7,86.6 C39,86.7 37.3,86.5 35.6,86 C19.9,85.7 23.9,62.4 38.2,60.7 C47.3,59.6 57.8,62.6 69.1,67.7 C47.1,53.8 26.4,43.6 10.8,48.2 C6.8,51.2 3.7,54.4 1.4,57.8 C-3.3,72.5 9.5,97.1 35.1,88.6 L35.1,88.6 Z" fill="url(#linearGradient-1)"></path>
			<path d="M152.1,116.7 C155.7,118.5 159.2,120 162.6,121.2 C220,141.9 274.7,86 242.4,46.6 C230.2,95.4 189.4,127.7 152.1,116.7 Z" fill="url(#linearGradient-2)"></path>
			<path d="M193.2,0 C197,1.8 200.5,4.8 203.4,9.1 C211.6,21.4 196.7,36.3 176,34.8 C156.5,33.4 145.6,26.5 132.7,21.2 C126.1,26.4 120,31.8 114.8,36.7 C124.9,41 134.9,45.7 144.7,49.9 C171.4,61.5 213,64.9 227.3,36.1 C230.5,17.9 213.8,3.8 193.2,0 L193.2,0 Z" fill="url(#linearGradient-3)"></path>
		</g>
	</g>
</svg>
